X:16889
T:The Ivy Leaf
R:Reel
S:Dermy Diamond, Belfast (fiddle)
D:Private tape - 198
H:'A3' and 'A2's all unisons
N:As played
M:4/4
K:D %i.e. 2 sharps
A3A cdeA | AceA dBGA | A2ed cdec | AE~E2 GEDG | A2ed cdec |\
(3.A.B.Aec dBGB | A2ed cdec | AE~E2 GEDG |: ea{b}ag eA (3.B.c.d |\
efge d3f | ea{b}ag edcd | AE~E2 GED2 | ea{b}ag eA (3.B.c.d | efge d3c \
|1 A3B E3c3d | (3.e.f.gfa gedB :|2 AEAc {d}cBcd| (3.e.f.gfa gedB ||
